X:2050
T:Va oie ayns Cronkalin Mooar
T:Glashtyn's song 
C:Traditional
O:Isle of Man
S:Philip Cain, Douglas 
Z:Clague collection
B:Kiaull Vannin #50 
L:1/8
M:3/8 
Q:140 
K:C 
G|G2A|GGE|G2G|A2A|AAF|A3|c2d|{B}c2^F|G3|c2d|{B}c2^F|G2G| 
G2A|GGE|G2G|A2A|AAF|A3|c2d|e2d|c2c|A2G|G(c2|c2)||


